X:1
T:All The Way To Galway (The Kerry Cow)
L:1/8
Q:1/4=110
M:2/4
K:D
|: A/ z B/ AG | FA d2 | G>A GF | EF G/F/E |
[K:D] A>B AG | FA de/d/ | cA GE | D2 D2 ::
[K:D] d4 |A4 | G4 | A4 |
 d4 | A4 | G4 | d4 ::
